; Generated with MatterSlice 2.20.10
; filamentDiameter = 1.75
; extrusionWidth = 0.4
; firstLayerExtrusionWidth = 0.4
; layerThickness = 0.2
; firstLayerThickness = 0.2
; automatic settings before start_gcode
G21 ; set units to millimeters
M107 ; fan off
T0 ; set the active extruder to 0
; settings from start_gcode
M104 S210
M140 S60
G28      ; Home all axes
G0 Z5 F5000
M117 ;Heating
M109 S210
M190 S60
G80         ; Probe
; Priming Line
G0 Y-3 F10800
G92 E0.0
G1 X60 E9 F1000
G1 X100 E12.5
G92 E0.0
; automatic settings after start_gcode
T0 ; set the active extruder to 0
G90 ; use absolute coordinates
G92 E0 ; reset the expected extruder position
M82 ; use absolute distance for extrusion
; Layer count: 230
; Layer Change GCode
; LAYER:0
; LAYER_HEIGHT:0.2
; TYPE:FILL
M400
M107
G0 X149 Y124 Z0.8 F10800
; TYPE:SKIRT
G0 Z0.2
G0 F2100
G1 X111 E1.201 F2400
G1 Y86 E2.401
G1 X149 E3.602
G1 Y124 E4.803
G0 X148.6 Y123.6 F10800
G1 X111.4 E5.978 F2400
G1 Y86.4 E7.154
G1 X148.6 E8.329
G1 Y123.6 E9.504
G0 X148.2 Y123.2 F10800
G1 X111.8 E10.655 F2400
G1 Y86.8 E11.805
G1 X148.2 E12.955
G1 Y123.2 E14.105
G0 X147.8 Y122.8 F10800
G1 X112.2 E15.23 F2400
G1 Y87.2 E16.355
G1 X147.8 E17.48
G1 Y122.8 E18.604
G0 X147.4 Y122.4 F10800
G1 X112.6 E19.704 F2400
G1 Y87.6 E20.804
G1 X147.4 E21.903
G1 Y122.4 E23.003
G0 X144.8 Y119.8 F10800
; TYPE:WALL-OUTER
G1 X115.2 E23.938 F2400
G1 Y90.2 E24.873
G1 X144.8 E25.809
G1 Y119.68 E26.74
G0 Y119.8
G0 X141.8
G0 X144.4 Y119.4 F10800
; TYPE:WALL-INNER
G1 X115.6 E27.65 F2400
G1 Y90.6 E28.56
G1 X144.4 E29.47
G1 Y119.28 E30.376
G0 Y119.4
G0 X144 Y119 F10800
G1 X116 E31.261 F2400
G1 Y91 E32.146
G1 X144 E33.03
G1 Y118.88 E33.911
G0 Y119
G0 X143.7 Y118.21 F10800
; TYPE:FILL
G1 X143.21 Y118.7 E33.933 F2400
G0 X142.65 F10800
G1 X143.7 Y117.65 E33.98 F2400
G0 Y117.08 F10800
G1 X142.08 Y118.7 E34.052 F2400
G0 X141.52 F10800
G1 X143.7 Y116.52 E34.15 F2400
G0 Y115.95 F10800
G1 X140.95 Y118.7 E34.272 F2400
G0 X140.38 F10800
G1 X143.7 Y115.39 E34.421 F2400
G0 Y114.82 F10800
G1 X139.82 Y118.7 E34.594 F2400
G0 X139.25 F10800
G1 X143.7 Y114.25 E34.793 F2400
G0 Y113.69 F10800
G1 X138.69 Y118.7 E35.016 F2400
G0 X138.12 F10800
G1 X143.7 Y113.12 E35.266 F2400
G0 Y112.56 F10800
G1 X137.56 Y118.7 E35.54 F2400
G0 X136.99 F10800
G1 X143.7 Y111.99 E35.84 F2400
G0 Y111.43 F10800
G1 X136.42 Y118.7 E36.165 F2400
G0 X135.86 F10800
G1 X143.7 Y110.86 E36.515 F2400
G0 Y110.29 F10800
G1 X135.29 Y118.7 E36.891 F2400
G0 X134.73 F10800
G1 X143.7 Y109.73 E37.292 F2400
G0 Y109.16 F10800
G1 X134.16 Y118.7 E37.718 F2400
G0 X133.6 F10800
G1 X143.7 Y108.6 E38.169 F2400
G0 Y108.03 F10800
G1 X133.03 Y118.7 E38.646 F2400
G0 X132.47 F10800
G1 X143.7 Y107.47 E39.148 F2400
G0 Y106.9 F10800
G1 X131.9 Y118.7 E39.675 F2400
G0 X131.33 F10800
G1 X143.7 Y106.33 E40.228 F2400
G0 Y105.77 F10800
G1 X130.77 Y118.7 E40.805 F2400
G0 X130.2 F10800
G1 X143.7 Y105.2 E41.408 F2400
G0 Y104.64 F10800
G1 X129.64 Y118.7 E42.037 F2400
G0 X129.07 F10800
G1 X143.7 Y104.07 E42.69 F2400
G0 Y103.51 F10800
G1 X128.51 Y118.7 E43.369 F2400
G0 X127.94 F10800
G1 X143.7 Y102.94 E44.073 F2400
G0 Y102.37 F10800
G1 X127.37 Y118.7 E44.803 F2400
G0 X126.81 F10800
G1 X143.7 Y101.81 E45.558 F2400
G0 Y101.24 F10800
G1 X126.24 Y118.7 E46.338 F2400
G0 X125.68 F10800
G1 X143.7 Y100.68 E47.143 F2400
G0 Y100.11 F10800
G1 X125.11 Y118.7 E47.973 F2400
G0 X124.55 F10800
G1 X143.7 Y99.55 E48.829 F2400
G0 Y98.98 F10800
G1 X123.98 Y118.7 E49.71 F2400
G0 X123.41 F10800
G1 X143.7 Y98.42 E50.617 F2400
G0 Y97.85 F10800
G1 X122.85 Y118.7 E51.548 F2400
G0 X122.28 F10800
G1 X143.7 Y97.28 E52.505 F2400
G0 Y96.72 F10800
G1 X121.72 Y118.7 E53.487 F2400
G0 X121.15 F10800
G1 X143.7 Y96.15 E54.495 F2400
G0 Y95.59 F10800
G1 X120.59 Y118.7 E55.528 F2400
G0 X120.02 F10800
G1 X143.7 Y95.02 E56.586 F2400
G0 Y94.46 F10800
G1 X119.46 Y118.7 E57.669 F2400
G0 X118.89 F10800
G1 X143.7 Y93.89 E58.778 F2400
G0 Y93.32 F10800
G1 X118.32 Y118.7 E59.911 F2400
G0 X117.76 F10800
G1 X143.7 Y92.76 E61.071 F2400
G0 Y92.19 F10800
G1 X117.19 Y118.7 E62.255 F2400
G0 X116.63 F10800
G1 X143.7 Y91.63 E63.465 F2400
G0 X143.46 Y91.3 F10800
G1 X116.3 Y118.46 E64.678 F2400
G0 Y117.9 F10800
G1 X142.89 Y91.3 E65.867 F2400
G0 X142.33 F10800
G1 X116.3 Y117.33 E67.03 F2400
G0 Y116.76 F10800
G1 X141.76 Y91.3 E68.168 F2400
G0 X141.2 F10800
G1 X116.3 Y116.2 E69.281 F2400
G0 Y115.63 F10800
G1 X140.63 Y91.3 E70.368 F2400
G0 X140.07 F10800
G1 X116.3 Y115.07 E71.43 F2400
G0 Y114.5 F10800
G1 X139.5 Y91.3 E72.467 F2400
G0 X138.94 F10800
G1 X116.3 Y113.94 E73.478 F2400
G0 Y113.37 F10800
G1 X138.37 Y91.3 E74.465 F2400
G0 X137.8 F10800
G1 X116.3 Y112.8 E75.426 F2400
G0 Y112.24 F10800
G1 X137.24 Y91.3 E76.361 F2400
G0 X136.67 F10800
G1 X116.3 Y111.67 E77.272 F2400
G0 Y111.11 F10800
G1 X136.11 Y91.3 E78.157 F2400
G0 X135.54 F10800
G1 X116.3 Y110.54 E79.017 F2400
G0 Y109.98 F10800
G1 X134.98 Y91.3 E79.851 F2400
G0 X134.41 F10800
G1 X116.3 Y109.41 E80.661 F2400
G0 Y108.84 F10800
G1 X133.84 Y91.3 E81.445 F2400
G0 X133.28 F10800
G1 X116.3 Y108.28 E82.203 F2400
G0 Y107.71 F10800
G1 X132.71 Y91.3 E82.937 F2400
G0 X132.15 F10800
G1 X116.3 Y107.15 E83.645 F2400
G0 Y106.58 F10800
G1 X131.58 Y91.3 E84.328 F2400
G0 X131.02 F10800
G1 X116.3 Y106.02 E84.986 F2400
G0 Y105.45 F10800
G1 X130.45 Y91.3 E85.618 F2400
G0 X129.88 F10800
G1 X116.3 Y104.89 E86.225 F2400
G0 Y104.32 F10800
G1 X129.32 Y91.3 E86.807 F2400
G0 X128.75 F10800
G1 X116.3 Y103.75 E87.363 F2400
G0 Y103.19 F10800
G1 X128.19 Y91.3 E87.895 F2400
G0 X127.62 F10800
G1 X116.3 Y102.62 E88.401 F2400
G0 Y102.06 F10800
G1 X127.06 Y91.3 E88.882 F2400
G0 X126.49 F10800
G1 X116.3 Y101.49 E89.337 F2400
G0 Y100.93 F10800
G1 X125.92 Y91.3 E89.767 F2400
G0 X125.36 F10800
G1 X116.3 Y100.36 E90.172 F2400
G0 Y99.79 F10800
G1 X124.79 Y91.3 E90.552 F2400
G0 X124.23 F10800
G1 X116.3 Y99.23 E90.906 F2400
G0 Y98.66 F10800
G1 X123.66 Y91.3 E91.235 F2400
G0 X123.1 F10800
G1 X116.3 Y98.1 E91.539 F2400
G0 Y97.53 F10800
G1 X122.53 Y91.3 E91.817 F2400
G0 X121.96 F10800
G1 X116.3 Y96.97 E92.071 F2400
G0 Y96.4 F10800
G1 X121.4 Y91.3 E92.299 F2400
G0 X120.83 F10800
G1 X116.3 Y95.83 E92.501 F2400
G0 Y95.27 F10800
G1 X120.27 Y91.3 E92.679 F2400
G0 X119.7 F10800
G1 X116.3 Y94.7 E92.831 F2400
G0 Y94.14 F10800
G1 X119.14 Y91.3 E92.958 F2400
G0 X118.57 F10800
G1 X116.3 Y93.57 E93.059 F2400
G0 Y93.01 F10800
G1 X118 Y91.3 E93.135 F2400
G0 X117.44 F10800
G1 X116.3 Y92.44 E93.187 F2400
G0 Y91.87 F10800
G1 X116.87 Y91.3 E93.212 F2400
G0 X116.31 F10800
G1 X116.3 Y91.31 E93.213 F2400
; Layer Change GCode
; LAYER:1
; LAYER_HEIGHT:0.2
; TYPE:FILL
M400
M106 S255
G0 X116 Y91 Z0.4 F10800
; TYPE:WALL-INNER
G1 X120.67 E93.36 F2700
G1 X125.33 E93.508
G1 X130 E93.655
G1 X134.67 E93.802
G1 X139.33 E93.95
G1 X144 E94.097
G1 Y95.67 E94.245
G1 Y100.33 E94.392
G1 Y105 E94.54
G1 Y109.67 E94.687
G1 Y114.33 E94.835
G1 Y119 E94.982
G1 X139.33 E95.13
G1 X134.67 E95.277
G1 X130 E95.425
G1 X125.33 E95.572
G1 X120.67 E95.72
G1 X116 E95.867
G1 Y114.35 E96.014
G1 Y109.71 E96.161
G1 Y105.06 E96.308
G1 Y100.41 E96.454
G1 Y95.77 E96.601
G1 Y91.12 E96.748
G0 Y91
G0 X115.6 Y90.6 F10800
G1 X120.4 E96.9 F2700
G1 X125.2 E97.051
G1 X130 E97.203
G1 X134.8 E97.355
G1 X139.6 E97.506
G1 X144.4 E97.658
G1 Y95.4 E97.81
G1 Y100.2 E97.961
G1 Y105 E98.113
G1 Y109.8 E98.265
G1 Y114.6 E98.416
G1 Y119.4 E98.568
G1 X139.6 E98.72
G1 X134.8 E98.871
G1 X130 E99.023
G1 X125.2 E99.175
G1 X120.4 E99.326
G1 X115.6 E99.478
G1 Y114.62 E99.629
G1 Y109.84 E99.78
G1 Y105.06 E99.931
G1 Y100.28 E100.082
G1 Y95.5 E100.233
G1 Y90.72 E100.384
G0 Y90.6
G0 X115.2 Y90.2 F10800
; TYPE:WALL-OUTER
G1 X120.13 E100.54 F2100
G1 X125.07 E100.696
G1 X130 E100.852
G1 X134.93 E101.007
G1 X139.87 E101.163
G1 X144.8 E101.319
G1 Y95.13 E101.475
G1 Y100.07 E101.631
G1 Y105 E101.787
G1 Y109.93 E101.943
G1 Y114.87 E102.099
G1 Y119.8 E102.255
G1 X139.87 E102.411
G1 X134.93 E102.567
G1 X130 E102.723
G1 X125.07 E102.878
G1 X120.13 E103.034
G1 X115.2 E103.19
G1 Y114.89 E103.345
G1 Y109.97 E103.5
G1 Y105.06 E103.656
G1 Y100.15 E103.811
G1 Y95.23 E103.966
G1 Y90.32 E104.121
G0 Y90.2
G0 X118.2
G0 X116 Y91 F10800
G0 X116.3 Y91.41
; TYPE:FILL
G1 X125.4 Y100.51 E104.528 F12000
G1 X134.49 Y109.6 E104.934
G1 X143.59 Y118.7 E105.341
G0 X143.7 Y118.24 F10800
G1 X134.72 Y109.26 E105.742 F12000
G1 X125.73 Y100.28 E106.144
G1 X116.75 Y91.3 E106.545
G0 X117.32 F10800
G1 X126.11 Y100.09 E106.938 F12000
G1 X134.91 Y108.89 E107.331
G1 X143.7 Y117.68 E107.724
G0 Y117.11 F10800
G1 X135.1 Y108.51 E108.108 F12000
G1 X126.49 Y99.9 E108.493
G1 X117.89 Y91.3 E108.877
G0 X118.45 F10800
G1 X126.87 Y99.72 E109.253 F12000
G1 X135.28 Y108.13 E109.629
G1 X143.7 Y116.55 E110.005
G0 Y115.98 F10800
G1 X135.47 Y107.75 E110.373 F12000
G1 X127.25 Y99.53 E110.74
G1 X119.02 Y91.3 E111.108
G0 X119.58 F10800
G1 X127.62 Y99.34 E111.467 F12000
G1 X135.66 Y107.37 E111.827
G1 X143.7 Y115.41 E112.186
G0 Y114.85 F10800
G1 X135.85 Y107 E112.537 F12000
G1 X128 Y99.15 E112.887
G1 X120.15 Y91.3 E113.238
G0 X120.71 F10800
G1 X128.37 Y98.96 E113.58 F12000
G1 X136.04 Y106.62 E113.923
G1 X143.7 Y114.28 E114.265
G0 Y113.72 F10800
G1 X136.23 Y106.25 E114.599 F12000
G1 X128.75 Y98.77 E114.933
G1 X121.28 Y91.3 E115.267
G0 X121.85 F10800
G1 X129.13 Y98.58 E115.592 F12000
G1 X136.42 Y105.87 E115.918
G1 X143.7 Y113.15 E116.243
G0 Y112.59 F10800
G1 X136.6 Y105.49 E116.56 F12000
G1 X129.51 Y98.4 E116.877
G1 X122.41 Y91.3 E117.194
G0 X122.98 F10800
G1 X133.34 Y101.66 E117.657 F12000
G1 X143.7 Y112.02 E118.12
G0 Y111.45 F10800
G1 X133.62 Y101.38 E118.571 F12000
G1 X123.54 Y91.3 E119.021
G0 X124.11 F10800
G1 X133.91 Y101.1 E119.459 F12000
G1 X143.7 Y110.89 E119.896
G0 Y110.32 F10800
G1 X134.19 Y100.81 E120.321 F12000
G1 X124.67 Y91.3 E120.746
G0 X125.24 F10800
G1 X134.47 Y100.53 E121.159 F12000
G1 X143.7 Y109.76 E121.571
G0 Y109.19 F10800
G1 X134.76 Y100.25 E121.971 F12000
G1 X125.81 Y91.3 E122.371
G0 X126.37 F10800
G1 X135.04 Y99.97 E122.758 F12000
G1 X143.7 Y108.63 E123.145
G0 Y108.06 F10800
G1 X135.32 Y99.68 E123.52 F12000
G1 X126.94 Y91.3 E123.894
G0 X127.5 F10800
G1 X135.6 Y99.4 E124.256 F12000
G1 X143.7 Y107.49 E124.618
G0 Y106.93 F10800
G1 X135.89 Y99.12 E124.967 F12000
G1 X128.07 Y91.3 E125.316
G0 X128.63 F10800
G1 X136.17 Y98.83 E125.653 F12000
G1 X143.7 Y106.36 E125.989
G0 Y105.8 F10800
G1 X136.45 Y98.55 E126.313 F12000
G1 X129.2 Y91.3 E126.637
G0 X129.77 F10800
G1 X143.7 Y105.23 E127.26 F12000
G0 Y104.67 F10800
G1 X130.33 Y91.3 E127.857 F12000
G0 X130.9 F10800
G1 X143.7 Y104.1 E128.429 F12000
G0 Y103.53 F10800
G1 X131.46 Y91.3 E128.976 F12000
G0 X132.03 F10800
G1 X143.7 Y102.97 E129.498 F12000
G0 Y102.4 F10800
G1 X132.59 Y91.3 E129.994 F12000
G0 X133.16 F10800
G1 X143.7 Y101.84 E130.465 F12000
G0 Y101.27 F10800
G1 X133.73 Y91.3 E130.91 F12000
G0 X134.29 F10800
G1 X143.7 Y100.71 E131.331 F12000
G0 Y100.14 F10800
G1 X134.86 Y91.3 E131.726 F12000
G0 X135.42 F10800
G1 X143.7 Y99.57 E132.096 F12000
G0 Y99.01 F10800
G1 X135.99 Y91.3 E132.44 F12000
G0 X136.55 F10800
G1 X143.7 Y98.44 E132.76 F12000
G0 Y97.88 F10800
G1 X137.12 Y91.3 E133.054 F12000
G0 X137.69 F10800
G1 X143.7 Y97.31 E133.322 F12000
G0 Y96.75 F10800
G1 X138.25 Y91.3 E133.566 F12000
G0 X138.82 F10800
G1 X143.7 Y96.18 E133.784 F12000
G0 Y95.61 F10800
G1 X139.38 Y91.3 E133.977 F12000
G0 X139.95 F10800
G1 X143.7 Y95.05 E134.144 F12000
G0 Y94.48 F10800
G1 X140.51 Y91.3 E134.287 F12000
G0 X141.08 F10800
G1 X143.7 Y93.92 E134.404 F12000
G0 Y93.35 F10800
G1 X141.64 Y91.3 E134.495 F12000
G0 X142.21 F10800
G1 X143.7 Y92.79 E134.562 F12000
G0 Y92.22 F10800
G1 X142.78 Y91.3 E134.603 F12000
G0 X143.34 F10800
G1 X143.7 Y91.66 E134.619 F12000
G1 E133.819 F2100
G0 Z1
G0 X143.47 Y100.67 F10800
G0 X143.25 Y109.69
G0 X143.02 Y118.7
G0 Z0.4
G1 E134.619 F2100
G1 X134.11 Y109.79 E135.017 F12000
G1 X125.21 Y100.88 E135.415
G1 X116.3 Y91.97 E135.813
G0 Y92.54 F10800
G1 X125.02 Y101.26 E136.203 F12000
G1 X133.74 Y109.98 E136.592
G1 X142.46 Y118.7 E136.982
G0 X141.89 F10800
G1 X133.36 Y110.17 E137.363 F12000
G1 X124.83 Y101.63 E137.745
G1 X116.3 Y93.1 E138.126
G0 Y93.67 F10800
G1 X124.64 Y102.01 E138.499 F12000
G1 X132.99 Y110.36 E138.871
G1 X141.33 Y118.7 E139.244
G0 X140.76 F10800
G1 X132.61 Y110.55 E139.609 F12000
G1 X124.45 Y102.39 E139.973
G1 X116.3 Y94.24 E140.338
G0 Y94.8 F10800
G1 X124.27 Y102.77 E140.694 F12000
G1 X132.23 Y110.73 E141.049
G1 X140.2 Y118.7 E141.405
G0 X139.63 F10800
G1 X131.85 Y110.92 E141.753 F12000
G1 X124.08 Y103.15 E142.1
G1 X116.3 Y95.37 E142.448
G0 Y95.93 F10800
G1 X123.89 Y103.52 E142.787 F12000
G1 X131.47 Y111.11 E143.126
G1 X139.06 Y118.7 E143.465
G0 X138.5 F10800
G1 X131.1 Y111.3 E143.796 F12000
G1 X123.7 Y103.9 E144.126
G1 X116.3 Y96.5 E144.457
G0 Y97.06 F10800
G1 X123.51 Y104.27 E144.779 F12000
G1 X130.72 Y111.49 E145.102
G1 X137.93 Y118.7 E145.424
G0 X137.37 F10800
G1 X126.84 Y108.17 E145.895 F12000
G1 X116.3 Y97.63 E146.366
G0 Y98.2 F10800
G1 X126.55 Y108.45 E146.824 F12000
G1 X136.8 Y118.7 E147.282
G0 X136.24 F10800
G1 X126.27 Y108.73 E147.728 F12000
G1 X116.3 Y98.76 E148.173
G0 Y99.33 F10800
G1 X125.99 Y109.02 E148.606 F12000
G1 X135.67 Y118.7 E149.038
G0 X135.1 F10800
G1 X125.7 Y109.3 E149.459 F12000
G1 X116.3 Y99.89 E149.879
G0 Y100.46 F10800
G1 X125.42 Y109.58 E150.287 F12000
G1 X134.54 Y118.7 E150.694
G0 X133.97 F10800
G1 X125.14 Y109.86 E151.089 F12000
G1 X116.3 Y101.02 E151.484
G0 Y101.59 F10800
G1 X124.86 Y110.15 E151.866 F12000
G1 X133.41 Y118.7 E152.248
G0 X132.84 F10800
G1 X124.57 Y110.43 E152.618 F12000
G1 X116.3 Y102.16 E152.988
G0 Y102.72 F10800
G1 X124.29 Y110.71 E153.345 F12000
G1 X132.28 Y118.7 E153.702
G0 X131.71 F10800
G1 X124.01 Y111 E154.046 F12000
G1 X116.3 Y103.29 E154.39
G0 Y103.85 F10800
G1 X123.72 Y111.28 E154.722 F12000
G1 X131.14 Y118.7 E155.054
G0 X130.58 F10800
G1 X123.44 Y111.56 E155.373 F12000
G1 X116.3 Y104.42 E155.692
G0 Y104.98 F10800
G1 X130.01 Y118.7 E156.305 F12000
G0 X129.45 Y118.7 F10800
G1 X116.3 Y105.55 E156.892 F12000
G0 Y106.12 F10800
G1 X128.88 Y118.7 E157.454 F12000
G0 X128.32 F10800
G1 X116.3 Y106.68 E157.991 F12000
G0 Y107.25 F10800
G1 X127.75 Y118.7 E158.503 F12000
G0 X127.18 F10800
G1 X116.3 Y107.81 E158.989 F12000
G0 Y108.38 F10800
G1 X126.62 Y118.7 E159.451 F12000
G0 X126.05 F10800
G1 X116.3 Y108.94 E159.886 F12000
G0 Y109.51 F10800
G1 X125.49 Y118.7 E160.297 F12000
G0 X124.92 F10800
G1 X116.3 Y110.08 E160.682 F12000
G0 Y110.64 F10800
G1 X124.36 Y118.7 E161.042 F12000
G0 X123.79 F10800
G1 X116.3 Y111.21 E161.377 F12000
G0 Y111.77 F10800
G1 X123.22 Y118.7 E161.687 F12000
G0 X122.66 F10800
G1 X116.3 Y112.34 E161.971 F12000
G0 Y112.9 F10800
G1 X122.09 Y118.7 E162.23 F12000
G0 X121.53 F10800
G1 X116.3 Y113.47 E162.463 F12000
G0 Y114.04 F10800
G1 X120.96 Y118.7 E162.672 F12000
G0 X120.4 F10800
G1 X116.3 Y114.6 E162.855 F12000
G0 Y115.17 F10800
G1 X119.83 Y118.7 E163.012 F12000
G0 X119.26 F10800
G1 X116.3 Y115.73 E163.145 F12000
G0 Y116.3 F10800
G1 X118.7 Y118.7 E163.252 F12000
G0 X118.13 F10800
G1 X116.3 Y116.86 E163.334 F12000
G0 Y117.43 F10800
G1 X117.57 Y118.7 E163.391 F12000
G0 X117 F10800
G1 X116.3 Y118 E163.422 F12000
G0 Y118.56 F10800
G1 X116.44 Y118.7 E163.428 F12000
; Layer Change GCode
; LAYER:2
; LAYER_HEIGHT:0.2
; TYPE:FILL
G0 X116 Y119 Z0.6 F10800
; TYPE:WALL-INNER
G1 Y114.33 E163.576 F2700
G1 Y109.67 E163.723
G1 Y105 E163.871
G1 Y100.33 E164.018
G1 Y95.67 E164.166
G1 Y91 E164.313
G1 X120.67 E164.461
G1 X125.33 E164.608
G1 X130 E164.756
G1 X134.67 E164.903
G1 X139.33 E165.051
G1 X144 E165.198
G1 Y95.67 E165.346
G1 Y100.33 E165.493
G1 Y105 E165.641
G1 Y109.67 E165.788
G1 Y114.33 E165.936
G1 Y119 E166.083
G1 X139.35 E166.23
G1 X134.71 E166.377
G1 X130.06 E166.524
G1 X125.41 E166.67
G1 X120.77 E166.817
G1 X116.12 E166.964
G0 X116
G0 X115.6 Y119.4 F10800
G1 Y114.6 E167.116 F2700
G1 Y109.8 E167.267
G1 Y105 E167.419
G1 Y100.2 E167.571
G1 Y95.4 E167.722
G1 Y90.6 E167.874
G1 X120.4 E168.026
G1 X125.2 E168.177
G1 X130 E168.329
G1 X134.8 E168.481
G1 X139.6 E168.632
G1 X144.4 E168.784
G1 Y95.4 E168.936
G1 Y100.2 E169.087
G1 Y105 E169.239
G1 Y109.8 E169.391
G1 Y114.6 E169.542
G1 Y119.4 E169.694
G1 X139.62 E169.845
G1 X134.84 E169.996
G1 X130.06 E170.147
G1 X125.28 E170.298
G1 X120.5 E170.449
G1 X115.72 E170.6
G0 X115.6
G0 X115.2 Y119.8 F10800
; TYPE:WALL-OUTER
G1 Y114.87 E170.756 F2100
G1 Y109.93 E170.912
G1 Y105 E171.068
G1 Y100.07 E171.223
G1 Y95.13 E171.379
G1 Y90.2 E171.535
G1 X120.13 E171.691
G1 X125.07 E171.847
G1 X130 E172.003
G1 X134.93 E172.158
G1 X139.87 E172.314
G1 X144.8 E172.47
G1 Y95.13 E172.626
G1 Y100.07 E172.782
G1 Y105 E172.938
G1 Y109.93 E173.094
G1 Y114.87 E173.25
G1 Y119.8 E173.406
G1 X139.89 E173.561
G1 X134.97 E173.716
G1 X130.06 E173.872
G1 X125.15 E174.027
G1 X120.23 E174.182
G1 X115.32 E174.337
G0 X115.2
G0 Y116.8
G0 X116 Y119 F10800
G0 X116.3 Y118.46
; TYPE:FILL
G1 X125.35 Y109.41 E174.742 F12000
G1 X134.41 Y100.35 E175.146
G1 X143.46 Y91.3 E175.551
G0 X143.7 Y91.63 F10800
G1 X134.68 Y100.65 E175.954 F12000
G1 X125.65 Y109.68 E176.357
G1 X116.63 Y118.7 E176.76
G0 X117.19 F10800
G1 X126.03 Y109.86 E177.155 F12000
G1 X134.86 Y101.03 E177.55
G1 X143.7 Y92.19 E177.945
G0 Y92.76 F10800
G1 X135.05 Y101.41 E178.331 F12000
G1 X126.41 Y110.05 E178.718
G1 X117.76 Y118.7 E179.104
G0 X118.32 F10800
G1 X126.78 Y110.24 E179.482 F12000
G1 X135.24 Y101.78 E179.86
G1 X143.7 Y93.32 E180.238
G0 Y93.89 F10800
G1 X135.43 Y102.16 E180.608 F12000
G1 X127.16 Y110.43 E180.977
G1 X118.89 Y118.7 E181.347
G0 X119.46 F10800
G1 X127.54 Y110.62 E181.708 F12000
G1 X135.62 Y102.54 E182.069
G1 X143.7 Y94.46 E182.43
G0 Y95.02 F10800
G1 X135.81 Y102.91 E182.783 F12000
G1 X127.91 Y110.81 E183.135
G1 X120.02 Y118.7 E183.488
G0 X120.59 F10800
G1 X128.29 Y111 E183.832 F12000
G1 X136 Y103.29 E184.177
G1 X143.7 Y95.59 E184.521
G0 Y96.15 F10800
G1 X136.18 Y103.67 E184.857 F12000
G1 X128.67 Y111.18 E185.192
G1 X121.15 Y118.7 E185.528
G0 X121.72 F10800
G1 X129.05 Y111.37 E185.855 F12000
G1 X136.37 Y104.05 E186.183
G1 X143.7 Y96.72 E186.51
G0 Y97.28 F10800
G1 X136.56 Y104.42 E186.829 F12000
G1 X129.42 Y111.56 E187.148
G1 X122.28 Y118.7 E187.467
G0 X122.85 F10800
G1 X133.28 Y108.28 E187.933 F12000
G1 X143.7 Y97.85 E188.399
G0 Y98.42 F10800
G1 X133.56 Y108.56 E188.852 F12000
G1 X123.41 Y118.7 E189.305
G0 X123.98 F10800
G1 X133.84 Y108.84 E189.746 F12000
G1 X143.7 Y98.98 E190.186
G0 Y99.55 F10800
G1 X134.13 Y109.13 E190.614 F12000
G1 X124.55 Y118.7 E191.042
G0 X125.11 F10800
G1 X134.41 Y109.41 E191.458 F12000
G1 X143.7 Y100.11 E191.873
G0 Y100.68 F10800
G1 X134.69 Y109.69 E192.276 F12000
G1 X125.68 Y118.7 E192.678
G0 X126.24 F10800
G1 X134.97 Y109.97 E193.068 F12000
G1 X143.7 Y101.24 E193.458
G0 Y101.81 F10800
G1 X135.26 Y110.26 E193.836 F12000
G1 X126.81 Y118.7 E194.213
G0 X127.37 F10800
G1 X135.54 Y110.54 E194.578 F12000
G1 X143.7 Y102.37 E194.942
G0 Y102.94 F10800
G1 X135.82 Y110.82 E195.294 F12000
G1 X127.94 Y118.7 E195.646
G0 X128.51 F10800
G1 X136.11 Y111.11 E195.986 F12000
G1 X143.7 Y103.51 E196.325
G0 Y104.07 F10800
G1 X136.39 Y111.39 E196.652 F12000
G1 X129.07 Y118.7 E196.979
G0 X129.64 F10800
G1 X143.7 Y104.64 E197.607 F12000
G0 Y105.2 F10800
G1 X130.2 Y118.7 E198.21 F12000
G0 X130.77 F10800
G1 X143.7 Y105.77 E198.788 F12000
G0 Y106.33 F10800
G1 X131.33 Y118.7 E199.34 F12000
G0 X131.9 F10800
G1 X143.7 Y106.9 E199.868 F12000
G0 Y107.47 F10800
G1 X132.47 Y118.7 E200.37 F12000
G0 X133.03 F10800
G1 X143.7 Y108.03 E200.846 F12000
G0 Y108.6 F10800
G1 X133.6 Y118.7 E201.298 F12000
G0 X134.16 F10800
G1 X143.7 Y109.16 E201.724 F12000
G0 Y109.73 F10800
G1 X134.73 Y118.7 E202.125 F12000
G0 X135.29 F10800
G1 X143.7 Y110.29 E202.5 F12000
G0 Y110.86 F10800
G1 X135.86 Y118.7 E202.851 F12000
G0 X136.42 F10800
G1 X143.7 Y111.43 E203.176 F12000
G0 Y111.99 F10800
G1 X136.99 Y118.7 E203.475 F12000
G0 X137.56 F10800
G1 X143.7 Y112.56 E203.75 F12000
G0 Y113.12 F10800
G1 X138.12 Y118.7 E203.999 F12000
G0 X138.69 F10800
G1 X143.7 Y113.69 E204.223 F12000
G0 Y114.25 F10800
G1 X139.25 Y118.7 E204.422 F12000
G0 X139.82 F10800
G1 X143.7 Y114.82 E204.595 F12000
G0 Y115.39 F10800
G1 X140.38 Y118.7 E204.743 F12000
G0 X140.95 F10800
G1 X143.7 Y115.95 E204.866 F12000
G0 Y116.52 F10800
G1 X141.52 Y118.7 E204.963 F12000
G0 X142.08 F10800
G1 X143.7 Y117.08 E205.036 F12000
G0 Y117.65 F10800
G1 X142.65 Y118.7 E205.082 F12000
G0 X143.21 F10800
G1 X143.7 Y118.21 E205.104 F12000
G1 E204.304 F2100
G0 Z1.2
G0 X143.3 Y104.76 F10800
G0 X142.89 Y91.3
G0 Z0.6
G1 E205.104 F2100
G1 X134.03 Y100.17 E205.5 F12000
G1 X125.16 Y109.03 E205.897
G1 X116.3 Y117.9 E206.293
G0 Y117.33 F10800
G1 X124.98 Y108.65 E206.681 F12000
G1 X133.65 Y99.98 E207.068
G1 X142.33 Y91.3 E207.456
G0 X141.76 F10800
G1 X133.27 Y99.79 E207.835 F12000
G1 X124.79 Y108.27 E208.215
G1 X116.3 Y116.76 E208.594
G0 Y116.2 F10800
G1 X124.6 Y107.9 E208.965 F12000
G1 X132.9 Y99.6 E209.335
G1 X141.2 Y91.3 E209.706
G0 X140.63 F10800
G1 X132.52 Y99.41 E210.069 F12000
G1 X124.41 Y107.52 E210.431
G1 X116.3 Y115.63 E210.794
G0 Y115.07 F10800
G1 X124.22 Y107.15 E211.148 F12000
G1 X132.15 Y99.22 E211.502
G1 X140.07 Y91.3 E211.856
G0 X139.5 F10800
G1 X131.77 Y99.03 E212.202 F12000
G1 X124.03 Y106.77 E212.547
G1 X116.3 Y114.5 E212.893
G0 Y113.94 F10800
G1 X123.85 Y106.39 E213.23 F12000
G1 X131.39 Y98.85 E213.567
G1 X138.94 Y91.3 E213.904
G0 X138.37 F10800
G1 X131.01 Y98.66 E214.233 F12000
G1 X123.66 Y106.01 E214.561
G1 X116.3 Y113.37 E214.89
G0 Y112.8 F10800
G1 X123.47 Y105.63 E215.21 F12000
G1 X130.63 Y98.47 E215.531
G1 X137.8 Y91.3 E215.851
G0 X137.24 F10800
G1 X126.77 Y101.77 E216.319 F12000
G1 X116.3 Y112.24 E216.787
G0 Y111.67 F10800
G1 X126.49 Y101.49 E217.242 F12000
G1 X136.67 Y91.3 E217.697
G0 X136.11 F10800
G1 X126.21 Y101.21 E218.14 F12000
G1 X116.3 Y111.11 E218.583
G0 Y110.54 F10800
G1 X125.92 Y100.92 E219.013 F12000
G1 X135.54 Y91.3 E219.442
G0 X134.98 F10800
G1 X125.64 Y100.64 E219.86 F12000
G1 X116.3 Y109.98 E220.277
G0 Y109.41 F10800
G1 X125.36 Y100.36 E220.682 F12000
G1 X134.41 Y91.3 E221.086
G0 X133.84 F10800
G1 X125.07 Y100.07 E221.478 F12000
G1 X116.3 Y108.84 E221.87
G0 Y108.28 F10800
G1 X124.79 Y99.79 E222.25 F12000
G1 X133.28 Y91.3 E222.629
G0 X132.71 F10800
G1 X124.51 Y99.51 E222.996 F12000
G1 X116.3 Y107.71 E223.363
G0 Y107.15 F10800
G1 X124.23 Y99.23 E223.717 F12000
G1 X132.15 Y91.3 E224.071
G0 X131.58 F10800
G1 X123.94 Y98.94 E224.413 F12000
G1 X116.3 Y106.58 E224.754
G0 Y106.02 F10800
G1 X123.66 Y98.66 E225.083 F12000
G1 X131.02 Y91.3 E225.411
G0 X130.45 F10800
G1 X123.38 Y98.38 E225.728 F12000
G1 X116.3 Y105.45 E226.044
G0 X116.3 Y104.89 F10800
G1 X129.88 Y91.3 E226.651 F12000
G0 X129.32 F10800
G1 X116.3 Y104.32 E227.233 F12000
G0 Y103.75 F10800
G1 X128.75 Y91.3 E227.789 F12000
G0 X128.19 F10800
G1 X116.3 Y103.19 E228.321 F12000
G0 Y102.62 F10800
G1 X127.62 Y91.3 E228.827 F12000
G0 X127.06 F10800
G1 X116.3 Y102.06 E229.307 F12000
G0 Y101.49 F10800
G1 X126.49 Y91.3 E229.763 F12000
G0 X125.92 F10800
G1 X116.3 Y100.93 E230.193 F12000
G0 Y100.36 F10800
G1 X125.36 Y91.3 E230.598 F12000
G0 X124.79 F10800
G1 X116.3 Y99.79 E230.977 F12000
G0 Y99.23 F10800
G1 X124.23 Y91.3 E231.332 F12000
G0 X123.66 F10800
G1 X116.3 Y98.66 E231.661 F12000
G0 Y98.1 F10800
G1 X123.1 Y91.3 E231.965 F12000
G0 X122.53 F10800
G1 X116.3 Y97.53 E232.243 F12000
G0 Y96.97 F10800
G1 X121.96 Y91.3 E232.496 F12000
G0 X121.4 F10800
G1 X116.3 Y96.4 E232.724 F12000
G0 Y95.83 F10800
G1 X120.83 Y91.3 E232.927 F12000
G0 X120.27 F10800
G1 X116.3 Y95.27 E233.104 F12000
G0 Y94.7 F10800
G1 X119.7 Y91.3 E233.257 F12000
G0 X119.14 F10800
G1 X116.3 Y94.14 E233.383 F12000
G0 Y93.57 F10800
G1 X118.57 Y91.3 E233.485 F12000
G0 X118 F10800
G1 X116.3 Y93.01 E233.561 F12000
G0 Y92.44 F10800
G1 X117.44 Y91.3 E233.612 F12000
G0 X116.87 F10800
G1 X116.3 Y91.87 E233.638 F12000
G0 Y91.31 F10800
G1 X116.31 Y91.3 E233.638 F12000
; Layer Change GCode
; LAYER:3
; LAYER_HEIGHT:0.2
; TYPE:FILL
G0 X116 Y91 Z0.8 F10800
; TYPE:WALL-INNER
G1 X120.67 E233.786 F2700
G1 X125.33 E233.933
G1 X130 E234.081
G1 X134.67 E234.228
G1 X139.33 E234.376
G1 X144 E234.523
G1 Y95.67 E234.671
G1 Y100.33 E234.818
G1 Y105 E234.966
G1 Y109.67 E235.113
G1 Y114.33 E235.261
G1 Y119 E235.408
